X: 6
T:Argeers
M:4/4
L:1/8
Q:200
C:Playford
O:Playford
A:English
K:Gm
Bcde c2 B2 | A2 F2 F4|f2 c2 f3 e |d2 B2 B4| Bcde c2 B2 |A3 B c2 F2 | GA B2 ABcd |B4 B4||
AB c2 AB c2| f2 c2 f2 c2| AB c2 AB c2 | f2 c2 f2 c2 | f2 ed e2 fe| d2 cB c3 F| GABc ABcd | B4 B4||

